svg/system/safety_certificate_fill.svg

<?xml version="1.0" encoding="UTF-8"?>
<svg width="24px" height="24px" viewBox="0 0 24 24" version="1.1" xmlns="http://www.w3.org/2000/svg" xmlns:xlink="http://www.w3.org/1999/xlink">
    <title>safety_certificate_fill</title>
    <g id="页面-1" stroke="none" stroke-width="1" fill="none" fill-rule="evenodd">
        <g id="System" transform="translate(-430.000000, -240.000000)">
            <g id="safety_certificate_fill" transform="translate(430.000000, 240.000000)">
                 <path d="M24,0 L24,24 L0,24 L0,0 L24,0 Z M12.5934901,23.257841 L12.5819402,23.2595131 L12.5108777,23.2950439 L12.4918791,23.2987469 L12.4918791,23.2987469 L12.4767152,23.2950439 L12.4056548,23.2595131 C12.3958229,23.2563662 12.3870493,23.2590235 12.3821421,23.2649074 L12.3780323,23.275831 L12.360941,23.7031097 L12.3658947,23.7234994 L12.3769048,23.7357139 L12.4804777,23.8096931 L12.4953491,23.8136134 L12.4953491,23.8136134 L12.5071152,23.8096931 L12.6106902,23.7357139 L12.6232938,23.7196733 L12.6232938,23.7196733 L12.6266527,23.7031097 L12.609561,23.275831 C12.6075724,23.2657013 12.6010112,23.2592993 12.5934901,23.257841 L12.5934901,23.257841 Z M12.8583906,23.1452862 L12.8445485,23.1473072 L12.6598443,23.2396597 L12.6498822,23.2499052 L12.6498822,23.2499052 L12.6471943,23.2611114 L12.6650943,23.6906389 L12.6699349,23.7034178 L12.6699349,23.7034178 L12.678386,23.7104931 L12.8793402,23.8032389 C12.8914285,23.8068999 12.9022333,23.8029875 12.9078286,23.7952264 L12.9118235,23.7811639 L12.8776777,23.1665331 C12.8752882,23.1545897 12.8674102,23.1470016 12.8583906,23.1452862 L12.8583906,23.1452862 Z M12.1430473,23.1473072 C12.1332178,23.1423925 12.1221763,23.1452606 12.1156365,23.1525954 L12.1099173,23.1665331 L12.0757714,23.7811639 C12.0751323,23.7926639 12.0828099,23.8018602 12.0926481,23.8045676 L12.108256,23.8032389 L12.3092106,23.7104931 L12.3186497,23.7024347 L12.3186497,23.7024347 L12.3225043,23.6906389 L12.340401,23.2611114 L12.337245,23.2485176 L12.337245,23.2485176 L12.3277531,23.2396597 L12.1430473,23.1473072 Z" id="MingCute" fill-rule="nonzero"></path>
                <path d="M11.2978,2.19533 C11.6939125,2.0467725 12.1254734,2.02820281 12.530448,2.13962094 L12.7022,2.19533 L19.7022,4.82033 C20.4308533,5.09354467 20.9298818,5.76181693 20.9931804,6.52752646 L21,6.69299 L21,12.0557 C21,15.3644353 19.185628,18.397435 16.2910032,19.9669788 L16.0249,20.1056 L12.6708,21.7826 C12.2954222,21.9703333 11.8610222,21.9911926 11.4725284,21.8451778 L11.3292,21.7826 L7.97508,20.1056 C5.01569824,18.6258412 3.11426678,15.6466349 3.00497789,12.3557015 L3,12.0557 L3,6.69299 C3,5.91488867 3.45049511,5.21294858 4.14521784,4.88481446 L4.29775,4.82033 L11.2978,2.19533 Z M15.4329,8.6291 L10.8348,13.2272 L9.06707,11.4594 C8.67654,11.0689 8.04338,11.0689 7.65285,11.4594 C7.26233,11.8499 7.26233,12.4831 7.65285,12.8736 L10.057,15.2778 C10.4866,15.7074 11.1831,15.7074 11.6127,15.2778 L16.8471,10.0433 C17.2377,9.65278 17.2377,9.01962 16.8471,8.6291 C16.4566,8.23857 15.8235,8.23857 15.4329,8.6291 Z" id="形状" fill="#09244B"></path>
            </g>
        </g>
    </g>
</svg>

<svg xmlns="http://www.w3.org/2000/svg" width="24" height="24"><g fill="none" fill-rule="evenodd"><path d="M24 0v24H0V0h24ZM12.593 23.258l-.011.002-.071.035-.02.004-.014-.004-.071-.035c-.01-.004-.019-.001-.024.005l-.004.01-.017.428.005.02.01.013.104.074.015.004.012-.004.104-.074.012-.016.004-.017-.017-.427c-.002-.01-.009-.017-.017-.018Zm.265-.113-.013.002-.185.093-.01.01-.003.011.018.43.005.012.008.007.201.093c.012.004.023 0 .029-.008l.004-.014-.034-.614c-.003-.012-.01-.02-.02-.022Zm-.715.002a.023.023 0 0 0-.027.006l-.006.014-.034.614c0 .012.007.02.017.024l.015-.002.201-.093.01-.008.004-.011.017-.43-.003-.012-.01-.01-.184-.092Z"/><path fill="#09244B" d="M11.298 2.195a2 2 0 0 1 1.232-.055l.172.055 7 2.625a2 2 0 0 1 1.291 1.708l.007.165v5.363a9 9 0 0 1-4.709 7.911l-.266.139-3.354 1.677a1.5 1.5 0 0 1-1.198.062l-.144-.062-3.354-1.677a9 9 0 0 1-4.97-7.75l-.005-.3V6.693a2 2 0 0 1 1.145-1.808l.153-.065 7-2.625Zm4.135 6.434-4.598 4.598-1.768-1.768a1 1 0 0 0-1.414 1.415l2.404 2.404a1.1 1.1 0 0 0 1.556 0l5.234-5.235a1 1 0 1 0-1.414-1.414Z"/></g></svg>
